X:1
T: The Boatman Dance
C:
R:Reel
Q: 232
K:A
M:4/4
L:1/8
|:e2|f2f2 e3e|f2f2 e3e|f2f2 e2c2|B2c2 A2:|
B2|c3B c2d2|e4 e2f2|e2c2 B2c2|A4 A2AB|
c2c2 B2cd|e2e2 A2AB|c2cd B2c2|A4 A4|
|:a4 a4|b2a2 f2z2|ee ee e2c2|1B2c2 A4:|2B2c2 A2||
